X:136
M:4/4
L:1/4
K:Eb
[GB] [EG] [EG] [DF] | [EG] [GB] [G2B2] | [Ac] [Ac] [ce] [Ac] | [Ac] [GB] [G2B2] | [GB] [EG] [EG] [DF] | [EG] [GB] [G2B2] | [Ac] [Ac] [GB] E | [EG] [DF] E2 | [G2B2] [EG] [GB] | [Ac] [c3e3] | [G2B2] [EG] E | [EG] [D3F3] | !sintro![E2B2] [EG] [GB] | [Ac] [c2e2] [Ac] | [GB] E [E3/2G3/2] [D/F/] | E4 !eintro!|]
